X: 30938
T: Over The Water To Charlie
R: jig
M: 6/8
K: Gmajor
|:G2 E EDB,|DED DB,D|DED DEG|c3 B2 A|
G2 E EDB,|DED DB,D|DED DEG|ABA G3:|
|:G2 A B2 c|d2 e d2 B|G2 A B2 c|d3 B2 A|
e2 d d2 B|cBA B2 A|G2 E EDD|c3 B2 A:|

